X: 496
T: Hambopolska efter Johan Fors
R: Hambopolska
S: efter Johan Fors
O: Dalarna
N: Södra Dalarna
Z: Håkan Lidén, 2008-09-27
M: 3/4
L: 1/8
K: G
D | G>B d2 d>B | d>b g2 g>d | G>B d2 d>B | c>e c2 c2 | D>F Ad f>e |
c>g f2 f>g |1 f>e c2 c>e | e>d B2 B :|2 f>e d>c A>c | B>A G3 ||
|: B | d>B G2 G>B | d>B G2 B>d | gf ed cB | ec A3 g |
f>e d2 d>f | a>f d2 d>g | f>e dc A>c | B>A G3 :|]
(:musicend:)

(:music:)
